Simply-Blue-Circles/scalable/apps/distributor-logo-centos.svg

<svg xmlns="http://www.w3.org/2000/svg" width="48" height="48" viewBox="0 0 12.7 12.7"><path d="M6.34.07a6.29 6.29 0 0 0-6.29 6.3 6.29 6.29 0 0 0 6.3 6.28 6.29 6.29 0 0 0 6.28-6.29A6.29 6.29 0 0 0 6.34.07zM6.32 1l.01.01a5.4 5.4 0 0 1 5.4 5.4 5.4 5.4 0 0 1-5.4 5.41 5.4 5.4 0 0 1-5.41-5.4A5.4 5.4 0 0 1 6.32 1zm0 .61l-1.39 1.4H2.96v1.97l-1.4 1.4 1.4 1.39v1.97h1.97l1.4 1.4 1.39-1.4h1.97V7.77l1.4-1.4-1.4-1.39V3.01H7.72l-1.4-1.4zM4.95 3.04h.9v2.19L4.43 3.8l-.11-.12.63-.64zm1.86 0h.9l.65.64-.12.12L6.8 5.23V3.04zM3.63 4.35L5.18 5.9H2.99V5l.64-.65zm5.39 0l.64.64v.9H7.47l1.55-1.54zm-6.03 2.5h2.19L3.63 8.4 3 7.76v-.9zm4.48 0h2.19v.9l-.64.64-1.55-1.54zm-1.62.67v2.19h-.9l-.64-.64 1.54-1.55zm.95 0l1.55 1.55-.64.64h-.9V7.52z" fill="#2c89a0"/></svg>

<?xml version="1.0" encoding="UTF-8" standalone="no"?>
<svg
   xmlns:dc="http://purl.org/dc/elements/1.1/"
   xmlns:cc="http://creativecommons.org/ns#"
   xmlns:rdf="http://www.w3.org/1999/02/22-rdf-syntax-ns#"
   xmlns:svg="http://www.w3.org/2000/svg"
   xmlns="http://www.w3.org/2000/svg"
   xmlns:sodipodi="http://sodipodi.sourceforge.net/DTD/sodipodi-0.dtd"
   xmlns:inkscape="http://www.inkscape.org/namespaces/inkscape"
   width="48"
   height="48"
   viewBox="0 0 12.7 12.7"
   version="1.1"
   id="svg4"
   sodipodi:docname="distributor-logo-centos.svg"
   inkscape:version="0.92.4 (5da689c313, 2019-01-14)">
  <metadata
     id="metadata10">
    <rdf:RDF>
      <cc:Work
         rdf:about="">
        <dc:format>image/svg+xml</dc:format>
        <dc:type
           rdf:resource="http://purl.org/dc/dcmitype/StillImage" />
        <dc:title></dc:title>
      </cc:Work>
    </rdf:RDF>
  </metadata>
  <defs
     id="defs8" />
  <sodipodi:namedview
     pagecolor="#ffffff"
     bordercolor="#666666"
     borderopacity="1"
     objecttolerance="10"
     gridtolerance="10"
     guidetolerance="10"
     inkscape:pageopacity="0"
     inkscape:pageshadow="2"
     inkscape:window-width="1087"
     inkscape:window-height="480"
     id="namedview6"
     showgrid="false"
     inkscape:zoom="4.9166667"
     inkscape:cx="2.1355932"
     inkscape:cy="24"
     inkscape:window-x="0"
     inkscape:window-y="25"
     inkscape:window-maximized="0"
     inkscape:current-layer="svg4" />
  <path
     d="M 6.34,0.07 A 6.29,6.29 0 0 0 0.05,6.37 6.29,6.29 0 0 0 6.35,12.65 6.29,6.29 0 0 0 12.63,6.36 6.29,6.29 0 0 0 6.34,0.07 Z M 6.32,1 6.33,1.01 a 5.4,5.4 0 0 1 5.4,5.4 5.4,5.4 0 0 1 -5.4,5.41 A 5.4,5.4 0 0 1 0.92,6.42 5.4,5.4 0 0 1 6.32,1 Z m 0,0.61 -1.39,1.4 H 2.96 v 1.97 l -1.4,1.4 1.4,1.39 v 1.97 h 1.97 l 1.4,1.4 1.39,-1.4 H 9.69 V 7.77 l 1.4,-1.4 -1.4,-1.39 V 3.01 H 7.72 Z M 4.95,3.04 h 0.9 V 5.23 L 4.43,3.8 4.32,3.68 Z m 1.86,0 h 0.9 L 8.36,3.68 8.24,3.8 6.8,5.23 V 3.04 Z M 3.63,4.35 5.18,5.9 H 2.99 V 5 Z m 5.39,0 0.64,0.64 v 0.9 H 7.47 Z M 2.99,6.85 H 5.18 L 3.63,8.4 3,7.76 v -0.9 z m 4.48,0 h 2.19 v 0.9 L 9.02,8.39 Z M 5.85,7.52 V 9.71 H 4.95 L 4.31,9.07 Z m 0.95,0 1.55,1.55 -0.64,0.64 H 6.81 V 7.52 Z"
     id="path2"
     inkscape:connector-curvature="0"
     style="fill:#2c89a0" />
</svg>
